site/static/images/icons/Icon (1).svg

<svg fill="none" height="15" viewBox="0 0 16 15" width="16" xmlns="http://www.w3.org/2000/svg"><path clip-rule="evenodd" d="m16 9.25v-7.5c0-.966498-.7835-1.75-1.75-1.75h-12.5c-.966498 0-1.75.783502-1.75 1.75v7.5c0 .9665.783502 1.75 1.75 1.75h3.72702c-.0991 1.041-.52019 1.8724-1.29209 2.7568-.19339.2216-.23941.5358-.11771.8036.1217.2677.38867.4396.68278.4396h6.5c.2941 0 .5611-.1719.6828-.4396.1217-.2678.0757-.582-.1177-.8036-.7719-.8844-1.193-1.7158-1.2921-2.7568h3.727c.9665 0 1.75-.7835 1.75-1.75zm-1.5-7.5v7.5c0 .13807-.1119.25-.25.25h-12.5c-.13807 0-.25-.11193-.25-.25v-7.5c0-.13807.11193-.25.25-.25h12.5c.1381 0 .25.11193.25.25zm-5.48217 9.25h-2.03566c-.06827.9377-.33119 1.7473-.76485 2.5h3.56536c-.43367-.7527-.69659-1.5623-.76485-2.5z" fill="#697280" fill-rule="evenodd"/></svg>

<svg width="16" height="15" viewBox="0 0 16 15" fill="none" xmlns="http://www.w3.org/2000/svg">
<path fill-rule="evenodd" clip-rule="evenodd" d="M16 9.25V1.75C16 0.783502 15.2165 0 14.25 0H1.75C0.783502 0 0 0.783502 0 1.75V9.25C0 10.2165 0.783502 11 1.75 11H5.47702C5.37792 12.041 4.95683 12.8724 4.18493 13.7568C3.99154 13.9784 3.94552 14.2926 4.06722 14.5604C4.18892 14.8281 4.45589 15 4.75 15H11.25C11.5441 15 11.8111 14.8281 11.9328 14.5604C12.0545 14.2926 12.0085 13.9784 11.8151 13.7568C11.0432 12.8724 10.6221 12.041 10.523 11H14.25C15.2165 11 16 10.2165 16 9.25ZM14.5 1.75V9.25C14.5 9.38807 14.3881 9.5 14.25 9.5H1.75C1.61193 9.5 1.5 9.38807 1.5 9.25V1.75C1.5 1.61193 1.61193 1.5 1.75 1.5H14.25C14.3881 1.5 14.5 1.61193 14.5 1.75ZM9.01783 11H6.98217C6.9139 11.9377 6.65098 12.7473 6.21732 13.5H9.78268C9.34901 12.7473 9.08609 11.9377 9.01783 11Z" fill="#697280"/>
</svg>
